src/assets/actions/toggleinputmute/key.svg

<svg xmlns="http://www.w3.org/2000/svg" width="144" height="144" viewBox="0 0 144 144">
	<path fill="#EFEFEF" fill-rule="evenodd"
		d="M48,60 L76,44 L76,100 L48,84 L48,60 Z M36,66 L43.9996461,62 L43.9996461,82 L36,78 L36,66 Z M89.9996461,44 L92.9996461,42 L107.999646,72.1075269 L92.9996461,102 L89.9996461,100 L103.999646,72.1075269 L89.9996461,44 Z M84.4996461,58 L87.4996461,56 L95.4996461,72 L87.4996461,88 L84.4996461,86 L91.4996461,72 L84.4996461,58 Z">
	</path>
</svg>

<svg xmlns="http://www.w3.org/2000/svg" width="144" height="144"><path fill="#EFEFEF" fill-rule="evenodd" d="M48 60l28-16v56L48 84V60zm-12 6l8-4v20l-8-4V66zm54-22l3-2 15 30.108L93 102l-3-2 14-27.892L90 44zm-5.5 14l3-2 8 16-8 16-3-2 7-14-7-14z"/></svg>
